X: 1
T: THE MARKET GIRL'S -- JIG
C: J.Sullivan
B: Ryan's Mammoth Collection of Fiddle Tunes
R: jig
M: 6/8
L: 1/8
Z: Contributed 20010701014002 by John Chambers jmchambers:rcn.net
K: G
   vDEF GBG | AGA ABG | DEF GBG | AEE GEE \
|   DEG GBG | AGA B2g | gfe dcB | AGE GED :|
|: vBdd dBd | BdB dBG | Bdd dBd | AGE GED \
|   Bdd dBd | BdB def | gfe dcB | AGE GED :|
